packages/kaspersky-hexa-ui-icons/src/iconsSVGs/24/Quarantine.svg

<svg width="24" height="24" viewBox="0 0 24 24" fill="none" xmlns="http://www.w3.org/2000/svg">
<path d="M15.0422 11.9464C14.8951 11.9465 14.7761 11.8295 14.7579 11.6839C14.6582 10.8881 14.2174 10.2008 13.5872 9.76188C13.4632 9.6755 13.4164 9.50943 13.4921 9.3788L14.9306 6.8944C15.0057 6.76475 15.1724 6.71991 15.299 6.80037C17.0328 7.90209 18.0334 9.74792 18.1228 11.6739C18.1297 11.8236 18.0074 11.9453 17.8571 11.9454L15.0422 11.9464Z" fill="black"/>
<path d="M5.87719 11.6877C5.87088 11.837 5.99305 11.958 6.14289 11.958L8.95629 11.9591C9.10393 11.9591 9.22319 11.8413 9.24081 11.6952C9.33715 10.896 9.77808 10.2056 10.4095 9.76451C10.5332 9.67806 10.5798 9.51222 10.5043 9.38174L9.06658 6.89805C8.99157 6.76846 8.82507 6.72346 8.69852 6.80388C7.89681 7.31335 7.20223 8.01812 6.69406 8.89504C6.18324 9.77831 5.91741 10.7356 5.87719 11.6877Z" fill="black"/>
<path d="M10.3287 12.0289C10.3287 11.1076 11.0773 10.3625 11.9999 10.3625C12.9238 10.3625 13.6724 11.1076 13.6724 12.0289C13.6724 12.9502 12.9238 13.694 11.9999 13.694C11.0773 13.694 10.3287 12.9502 10.3287 12.0289Z" fill="black"/>
<path d="M14.9176 17.017C14.9928 17.1469 14.9481 17.3136 14.8144 17.3823C13.0983 18.2645 11.0001 18.3207 9.17821 17.3753C9.04501 17.3061 9.00056 17.1397 9.07566 17.01L10.4452 14.6452C10.521 14.5144 10.6889 14.4719 10.8257 14.5368C11.1826 14.7062 11.5783 14.8054 11.9999 14.8054C12.4193 14.8054 12.8127 14.7071 13.1681 14.5396C13.3048 14.4751 13.4722 14.5179 13.5478 14.6485L14.9176 17.017Z" fill="black"/>
<path fill-rule="evenodd" clip-rule="evenodd" d="M12 2C6.47715 2 2 6.47715 2 12C2 17.5228 6.47715 22 12 22C17.5228 22 22 17.5228 22 12C22 6.47715 17.5228 2 12 2ZM4 12C4 7.58172 7.58172 4 12 4C16.4183 4 20 7.58172 20 12C20 16.4183 16.4183 20 12 20C7.58172 20 4 16.4183 4 12Z" fill="black"/>
</svg>

<svg xmlns="http://www.w3.org/2000/svg" width="24" height="24" fill="none" viewBox="0 0 24 24"><path fill="#000" d="M15.042 11.946c-.147 0-.266-.117-.284-.262-.1-.796-.54-1.483-1.171-1.922-.124-.086-.171-.252-.095-.383l1.439-2.484c.075-.13.242-.174.368-.094 1.734 1.102 2.734 2.948 2.824 4.874.007.15-.115.271-.266.272zm-9.165-.258c-.006.149.116.27.266.27l2.813.001c.148 0 .267-.118.285-.264.096-.799.537-1.49 1.169-1.931.124-.086.17-.252.095-.383L9.067 6.898c-.075-.129-.241-.174-.368-.094-.802.509-1.496 1.214-2.005 2.091-.511.883-.777 1.841-.817 2.793m4.452.341c0-.921.749-1.666 1.671-1.666.924 0 1.673.745 1.673 1.666s-.749 1.665-1.672 1.665-1.671-.744-1.671-1.665m4.588 4.988c.075.13.031.297-.103.365-1.716.882-3.814.938-5.636-.007-.133-.069-.178-.236-.102-.365l1.37-2.365c.076-.131.244-.173.381-.108.357.169.753.269 1.174.269.419 0 .813-.098 1.168-.266.137-.064.304-.022.38.109z"/><path fill="#000" fill-rule="evenodd" d="M12 2C6.4772 2 2 6.4772 2 12s4.4772 10 10 10 10-4.4772 10-10S17.5228 2 12 2M4 12c0-4.4183 3.5817-8 8-8s8 3.5817 8 8-3.5817 8-8 8-8-3.5817-8-8" clip-rule="evenodd"/></svg>
